Papirus/48x48/apps/org.kde.merkuro.contact.svg

<!-- Created with Inkscape (http://www.inkscape.org/) -->
<svg width="48" height="48" version="1.1" viewBox="0 0 48 48" xmlns="http://www.w3.org/2000/svg">
 <rect x="4" y="5" width="40" height="40" ry="7" style="opacity:.2"/>
 <rect x="4" y="4" width="40" height="40" ry="7" style="fill:#4bae4f"/>
 <path d="m24 25.000002c-9.999 0.0064-10 6.892306-10 6.892306v2.8s1.846142 4.307692 10 4.307692 10-4.307692 10-4.307692v-2.8s0-6.896614-9.998-6.892306zm0-14.000002c-3.3144 0-6 2.6868-6 6s2.6856 6 6 6 6-2.6868 6-6-2.6856-6-6-6z" style="opacity:.2"/>
 <path d="m24 24.000002c-9.998999 0.0064-10 6.892306-10 6.892306v2.8s1.846143 4.307692 10 4.307692c8.153858 0 10-4.307692 10-4.307692v-2.8s0-6.896614-9.998-6.892306zm0-14.000002c-3.3144 0-5.999999 2.6868-5.999999 6s2.685599 6 5.999999 6 6-2.6868 6-6-2.6856-6-6-6z" style="fill:#ffffff"/>
 <path d="m11 4c-3.8779962 0-7 3.1220038-7 7v1c0-3.8779962 3.1220038-7 7-7h26c3.877996 0 7 3.1220038 7 7v-1c0-3.8779962-3.122004-7-7-7z" style="fill:#ffffff;opacity:.2"/>
</svg>

<svg xmlns="http://www.w3.org/2000/svg" width="48" height="48" version="1.1">
 <rect style="opacity:0.2" width="40" height="40" x="4" y="5" ry="7"/>
 <rect style="fill:#4bae4f" width="40" height="40" x="4" y="4" ry="7"/>
 <path style="fill:#ffffff;opacity:0.2" d="M 11 4 C 7.122 4 4 7.122 4 11 L 4 12 C 4 8.122 7.122 5 11 5 L 37 5 C 40.878 5 44 8.122 44 12 L 44 11 C 44 7.122 40.878 4 37 4 L 11 4 z"/>
 <path style="opacity:0.2" d="M 30,17 A 6,6 0 0 1 24,23 6,6 0 0 1 18,17 6,6 0 0 1 24,11 6,6 0 0 1 30,17 Z M 24,25 C 14,25.01 14,31.89 14,31.89 V 34.69 C 14,34.69 15.85,39 24,39 32.15,39 34,34.69 34,34.69 V 31.89 C 34,31.89 34,25 24,25 Z"/>
 <path style="fill:#ffffff" d="M 30,16 A 6,6 0 0 1 24,22 6,6 0 0 1 18,16 6,6 0 0 1 24,10 6,6 0 0 1 30,16 Z M 24,24 C 14,24.01 14,30.89 14,30.89 V 33.69 C 14,33.69 15.85,38 24,38 32.15,38 34,33.69 34,33.69 V 30.89 C 34,30.89 34,24 24,24 Z"/>
</svg>
